X:1
T:The Song the Herald Angels Sang
T:The Song the Herald Angels Sang
T:Pluma M. Kimball Brown
T:Jennie Wayne, 1891, alt.
T:Public Domain Courtesy of the Cyber Hymnal™
T:Public Domain Courtesy of the Cyber Hymnal™
C:Pluma M. Kimball Brown
Z:Public Domain
Z:Courtesy of the Cyber Hymnal™
%%score ( 1 2 ) ( 3 4 )
L:1/8
Q:1/4=106
M:4/4
K:D
V:1 treble 
V:2 treble 
V:3 bass 
V:4 bass 
V:1
 [FA] | [FA]3 [FA] ([FA][GB]) ([FA][GB]) | [FA]2 [A,D]2 [DF]2 [FA]2 | [EA]2 [A,C]2 [CE]2 [GA]2 | %4
w: 1.~The|song the her- * ald *|an- gels sang, O’er|Beth- lehem’s star- lit|
w: 2.~Thro’|all these long * mil- *|len- ni- a, This|song of peace and|
w: 3.~Thro’|all the ag- * es *|yet to come, ’Twill|whis- per sweet and|
 ([FA]2 [DF]4) [FA]2 | [FA]3 [FA] ([EG][GB]) ([EG][GB]) | ([FA]2 [A,D]2) [DF]2 [FA]2 | %7
w: plain, * Still|ech- oes in * the *|heart~of * man, A|
w: love, * Has|breathed its balm * of *|bless- * ing, And|
w: low, * If|man but love * his *|brother * man, ’Tis|
 [Ac]3 [Ac] [^Gd]2 [EG]2 | e4- (ef) ([Ae][Fd]) | [Ec]2 E2 [^GB]3 A | A6 [CA]2 | %11
w: glad- some sweet re-|frain, * * A *|glad- some sweet re-|frain. Peace,|
w: hov- ered like a|dove, * * And *|hov- ered like a|dove. A-|
w: Heav’n be- gun be-|low, * * ’Tis *|Heav’n be- gun be-|low. And|
 [CG]2 [CE]2 [A,C]2 [GB]2 | [FA]3 [EG] [DF]2 [FA]2 | [GB]2 [GB]2 [^Gc]2 [Gd]2 | [Ge]6 ([GA][GA]) | %15
w: peace on earth, good|will to men, Our|Fa- ther reigns su-|preme, And *|
w: bove the rest- less|pulse of man, Bid-|ding his pas- sions|cease, Till *|
w: so with song and|ra- di- ance, The|way will grow more|bright, Till~the *|
 [Fd]3 [FA] ([FA][GB]) ([FA][GB]) | ([FA]2 [A,D]2) [DF]4 | [CA]2 [E^G][DA] [=GB]2 [Gc]2 | %18
w: love fills all * the *|uni- * verse,|E- vil is but a|
w: war and strife * are *|end- * ed,|And na- tions dwell in|
w: star that shines * o’er *|Bethle- * hem,|Fills all the world with|
 [Fd]6 z |] %19
w: dream.|
w: peace.|
w: light.|
V:2
 x | x8 | x8 | x8 | x8 | x8 | x8 | x8 | A6 x2 | x2 E2 x A x2 | A6 x2 | x8 | x8 | x8 | x8 | x8 | %16
 x8 | x8 | x7 |] %19
V:3
 [D,A,] | [D,A,]3 [D,A,] [D,A,]2 [D,A,]2 | [D,A,]2 [F,A,]2 [D,A,]2 [F,A,]2 | %3
 [A,,C]2 [A,,E,]2 [A,,A,]2 [C,A,]2 | [D,A,]6 [D,A,]2 | [D,A,]3 [D,A,] [D,A,]2 [D,A,]2 | %6
 ([D,A,]2 [F,A,]2) [D,A,]2 [F,A,]2 | [E,A,]3 [E,A,] [E,B,]2 [E,B,]2 | %8
 [A,C]2 [A,,A,]2 [C,E,]2 [D,F,]2 | [E,A,]2 [E,C]2 [E,D]3 [A,C] | [A,C]6 [A,,A,]2 | %11
 [A,,A,]2 [C,A,]2 [E,A,]2 [A,,A,]2 | [D,A,]2 [F,A,]2 A,2 [D,D]2 | [G,D]2 [G,D]2 [E,E]2 [E,B,]2 | %14
 [A,C]6 ([A,C][A,C]) | [D,A,]3 [D,A,] [D,A,]2 [D,A,]2 | ([D,A,]2 [F,A,]2) [D,A,]4 | %17
 [A,,E,]2 [A,,E,][A,,E,] [A,,E,]2 [A,,A,]2 | [D,A,]6 z |] %19
V:4
 x | x8 | x8 | x8 | x8 | x8 | x8 | x8 | x8 | x8 | x8 | x8 | x4 A,2 x2 | x8 | x8 | x8 | x8 | x8 | %18
 x7 |] %19

